X:1
T:Title
%%score 1 2 3
L:1/8
M:2/2
K:C
V:1 treble nm="Part_1"
V:2 treble-8 nm="Part_2"
V:3 treble-8 nm="Part_3"
V:1
 G8- | G8 | B8 | c8 | d6 cB | A8 | G4 c4 | _B4 G4 | A8 | _B8 | z4 d4- | d4 d4 | d8 | B4 c4 | %14
 d4 e4- | e4 d4 | c2 d2 e4- | e4 d4- | d4 c4- | c4 B4 | c8 | z4 A4 | G8 | A6 B2 | c6 d2 | B8 | %26
 z4 G4 | F4 A4- | A4 G4- | G4 F4 | G8 |] %31
V:2
 G8- | G8 | d8 | e8 | d8 | d8 | e8 | d4 _B4 | c8 | _B8- | B8 | G4 G4 | B8 | d4 e4 | f4 g4- | %15
 g4 f4 | e8 | c4 f4- | f4 e4 | d8 | c8- | c8 | z4 e4 | d6 cB | A8 | G8- | G8 | A4 F4 | A4 _B4 | %29
 A8 | G8 |] %31
V:3
 d8- | d8 | G8 | c8 | G8 | f8 | g8 | f4 d4 | e8 | f8- | f8 | g4 g4 | G4 G4- | G4 c4 | B4 G4 | %15
 c4 d4 | A8 | z4 F4 | _B4 c4 | G8 | g8 | e4 c4 | c8 | f8 | e4 f4 | g8 | d8 | c4 f4 | e4 d4- | %29
 d4 c4 | d8 |] %31

